!!!!SEGMENT: d-b--slg-bohn-ms-mus-111--024_jarzebski-adam--canzoni-e-concerti-24-canzon-prima.krn
!!!cenid: 16xx:1797
!!!COM: Jarzębski, Adam
!!!COM-rismID: pe30017782
!!!CDT:
!!!CNT:
!!!GTL: Canzoni e Concerti
!!!OTL: 24. Canzon Prima
!!!PDT: 1627
!!!AGN:
!!!SMS-siglum: D-B
!!!SMS-shelfmark: Slg Bohn Ms.mus. 111
!!!SMS-shelfwork: 024 G
!!!SMS-variant:
!!!SMS-altvar:
!!!NIFC-rismSourceID: 1001062014
!!!NIFC-rismChildID: 1001062014
!!!NIFC-islandoraID:
!!!URL-pdf-islandora:
!!!URL-scan: https://digital.staatsbibliothek-berlin.de/werkansicht/?PPN=PPN1049147219
!!!ONB-nifc: UWAGA: Prima vox: s. 38, Seconda vox: s. 98, Bassus sive Vox Tertia: s. 137, Basso: s. 182, Basso continuo: s. 213. Uwaga: proszę wpisywać partie tylko występujące w danym koncercie i nazywać partie wg określeń podawanych przy danym utworze. Kody instr. dla humdrumowców podane zostaną na forum.
!!!AIN: 1 bass 3 vox
!!!key:
**kern	**fba	**kern	**kern	**kern	**kern
*part5	*part5	*part4	*part3	*part2	*part1
*staff5	*	*staff4	*staff3	*staff2	*staff1
*I"[Baſso Contiuo]	*	*I"Baſso.	*I"Tertio Vox.	*I"2. Vox.	*I"Prima Vox.
*I'bc	*	*I'B	*I'V 3	*I'V 2	*I'V 1
*	*	*ICvox	*ICvox	*ICvox	*ICvox
*	*	*Ibass	*Ivox	*Ivox	*Ivox
*IGcont	*	*	*	*	*
*clefC1	*	*clefC4	*clefC3	*clefG2	*clefG2
*mclefG2	*	*mclefF4	*mclefGv2	*	*
*k[]	*	*k[]	*k[]	*k[]	*k[]
*a:	*	*a:	*a:	*a:	*a:
*M2/2	*	*M2/2	*M2/2	*M2/2	*M2/2
*met(C|)	*	*met(C|)	*met(C|)	*met(C|)	*met(C|)
=1-	=1-	=1-	=1-	=1-	=1-
!!LO:TX:t=P:problem:all\right or middle	!	!	!	!
*2\right	*	*	*	*	*2\right
2ee\	.	00r	00r	1r	2ee\
4ee\	.	.	.	.	4ee\
4ee\	.	.	.	.	4ee\
=2-	=2-	=2-	=2-	=2-	=2-
2a\	.	.	.	2a/	1ee
4a\	.	.	.	4a/	.
!LO:TX:t=P:problem:kreska pseudotaktowa	!	!	!	!	!
4a\	.	.	.	4a/	.
=3-	=3-	=3-	=3-	=3-	=3-
2.a\	.	.	.	2a/	8r
.	.	.	.	.	8ee\L
.	.	.	.	.	8ff\
.	.	.	.	.	8gg\J
.	.	.	.	8r	4aa\
.	.	.	.	8a/L	.
!	!	!	!	!	!LO:TX:t=P:problem:kreska pseudotaktowa
8b\L	6	.	.	8b/	4gg\
8cc\J	.	.	.	8cc/J	.
=4-	=4-	=4-	=4-	=4-	=4-
4dd\	#	.	.	4dd\	4ff#X\
4cc\	.	.	.	4cc\	4ee\
4b\	.	.	.	4b/	2dd\
!LO:TX:t=P:problem:kreska pseudotaktowa	!	!	!	!	!
4a\	.	.	.	4a/	.
=5-	=5-	=5-	=5-	=5-	=5-
2.g/	.	0r	0r	2g/	8r
.	.	.	.	.	8dd\L
.	.	.	.	.	8ee\
.	.	.	.	.	8ffny\J
.	.	.	.	8r	4gg\
.	.	.	.	8g/L	.
8a\L	6	.	.	8a/	4ff\
8b\J	.	.	.	8b/J	.
=6-	=6-	=6-	=6-	=6-	=6-
4cc\	.	.	.	4cc\	4ee\
4b\	.	.	.	4b/	4dd\
2a\	.	.	.	1a/	4cc\
.	.	.	.	.	8b/L
.	.	.	.	.	8a/J
*clefC3	*	*	*	*	*
=7-	=7-	=7-	=7-	=7-	=7-
*	*	*	*2\right	*	*
2e\	4	1r	2e\	.	2b/
4e\	#	.	4e\	2g#X/	2b/
4e\	.	.	4e\	.	.
*clefC4	*	*	*	*	*
*custos:A	*	*	*	*	*
!LO:LB:g=original	!	!	!	!	!
=8-	=8-	=8-	=8-	=8-	=8-
2A/	.	2A/	1e	2a/	2a/
4A/	.	4A/	.	8r	8r
!	!	!	!	!LO:TX:t=P:problem:# below	!
.	.	.	.	8g#X/L	8b/L
4A/	.	4A/	.	8a/	8cc/
!	!	!	!	!LO:TX:t=P:problem:kreska pseudotaktowa	!
.	.	.	.	8b/J	8dd/J
=9-	=9-	=9-	=9-	=9-	=9-
2.A/	.	2A/	8r	4cc\	4ee\
.	.	.	8e\L	.	.
.	.	.	8f\	4b/	4dd\
.	.	.	8g\J	.	.
.	.	8r	4a\	4a/	4cc\
.	.	8A\L	.	.	.
!	!	!	!	!LO:TX:t=P:problem:kreska pseudotaktowa	!
8B\L	6	8B\	4g\	4r	4b/
8c\J	.	8c\J	.	.	.
*	*	*	*	*	*custos:a
!	!	!	!	!	!LO:LB:g=original
=10-	=10-	=10-	=10-	=10-	=10-
4.d\	.	4.d\	4.f\	8r	4a/
.	.	.	.	8a/L	.
.	.	.	.	8b/	4r
8c\	.	8c\	8e\	8cc/J	.
4B\	.	4B\	4d\	4dd\	8r
.	.	.	.	.	8dd\L
!LO:TX:t=P:problem:kreska pseudotaktowa	!	!	!LO:TX:t=P:problem:kreska pseudotaktowa	!LO:TX:t=P:problem:kreska pseudotaktowa	!
4A/	5:6	4A/	4r	4cc\	8ee\
!	!	!	!	!	!LO:TX:t=P:problem:kreska pseudotaktowa
.	.	.	.	.	8ff#Xi\J
*	*	*	*	*custos:b	*
!	!	!	!	!LO:LB:g=original	!
=11-	=11-	=11-	=11-	=11-	=11-
2.G/	.	2G/	8r	4.b/	4.gg\
.	.	.	8d\L	.	.
.	.	.	8e\	.	.
.	.	.	8f\J	8a/	8ffny\
.	.	8r	4g\	4gny/	4ee\
.	.	8G/L	.	.	.
!	!	!	!	!	!LO:TX:t=P:problem:kreska pseudotaktowa
8A/L	6	8A/	4f\	4r	4dd\
8B/J	.	8B/J	.	.	.
=12-	=12-	=12-	=12-	=12-	=12-
4c\	.	4c\	4e\	2r	8cc\L
.	.	.	.	.	8ee\
4B\	.	4B\	4d\	.	8ff#Xi\
.	.	.	.	.	8gg#Xi\J
4.A/	.	4.A\	4.c/	8r	1aa\
.	.	.	.	8b\L	.
.	.	.	.	8cc\	.
!	!	!	!	!LO:TX:t=P:problem:kreska pseudotaktowa	!
16G/LL	.	16G/LL	16B/LL	8dd\J	.
!LO:TX:t=P:problem:kreska pseudotaktowa	!	!	!	!	!
16F/JJ	.	16F/JJ	16A/JJ	.	.
*	*	*custos:E	*	*	*
!	!	!LO:LB:g=original	!	!	!
=13-	=13-	=13-	=13-	=13-	=13-
*	*	*	*	*2\right	*
4E/	4#r	4E/	2B/	2.ee\	.
4D/	6	4D/	.	.	.
2E/	#	2E/	2B/	.	2gg#X\
.	.	.	.	4dd\	.
*	*	*	*custos:A	*	*
!	!	!	!LO:LB:g=original	!	!
=14-	=14-	=14-	=14-	=14-	=14-
4AA/	#	4AA/	1A	2cc#X\	2aa\
4A/	.	4A/	.	.	.
4A/	.	4A/	.	8r	8r
!	!	!	!	!LO:TX:t=P:problem:# below	!
.	.	.	.	8g#X/L	8b\L
4A/	.	4A/	.	8a/	8cc\
.	.	.	.	8b/J	8dd\J
=15-	=15-	=15-	=15-	=15-	=15-
2.A/	.	2A/	8r	4ccny\	4ee\
.	.	.	8e\L	.	.
.	.	.	8f\	4b/	4dd\
.	.	.	8g\J	.	.
.	.	8r	4a\	4a/	4cc\
.	.	8A\L	.	.	.
!	!	!	!	!	!LO:TX:t=P:problem:kreska pseudotaktowa
8B\L	6	8B\	4g\	4r	4b/
8c\J	.	8c\J	.	.	.
=16-	=16-	=16-	=16-	=16-	=16-
4.d\	.	4.d\	4.f\	8r	4a/
.	.	.	.	8a/L	.
.	.	.	.	8b/	4r
8c\	.	8c\	8e\	8cc/J	.
4B\	.	4B\	4d\	4dd\	8r
.	.	.	.	.	8dd\L
!	!	!	!LO:TX:t=P:problem:kreska pseudotaktowa	!LO:TX:t=P:problem:kreska pseudotaktowa	!
4A/	.	4A/	4r	4cc\	8ee\
!	!	!	!	!	!LO:TX:t=P:problem:kreska pseudotaktowa
.	.	.	.	.	8ff#Xi\J
*custos:G	*	*	*	*	*
!LO:LB:g=original	!	!	!	!	!
=17-	=17-	=17-	=17-	=17-	=17-
2.G/	.	2G/	8r	4.b/	4.ggny\
.	.	.	8d\L	.	.
.	.	.	8e\	.	.
.	.	.	8f\J	8a/	8ffny\
.	.	8r	4g\	4gny/	4ee\
.	.	8G/L	.	.	.
!	!	!	!	!LO:TX:t=P:problem:kreska pseudotaktowa	!
8A/L	6	8A/	4f\	4r	4dd\
8B/J	.	8B/J	.	.	.
*	*	*	*	*	*custos:cc
!	!	!	!	!	!LO:LB:g=original
=18-	=18-	=18-	=18-	=18-	=18-
4c\	.	4c\	4e\	2r	8cc\L
.	.	.	.	.	8ee\
4B\	.	4B\	4d\	.	8ff#Xi\
.	.	.	.	.	8gg#Xi\J
4.A/	.	4.A/	4.c/	8r	1aa\
.	.	.	.	8b\L	.
.	.	.	.	8cc\	.
16G/LL	.	16G/LL	16B/LL	8dd\J	.
!LO:TX:t=P:problem:kreska pseudotaktowa	!	!	!	!	!
16F/JJ	.	16F/JJ	16A/JJ	.	.
*	*	*	*	*custos:ee	*
!	!	!	!	!LO:LB:g=original	!
=19-	=19-	=19-	=19-	=19-	=19-
4E/	4	4E/	2B/	2.ee\	.
4D/	6	4D/	.	.	.
2E/	#	2E/	2B/	.	2gg#X\
.	.	.	.	4dd\	.
*	*	*custos:AA	*	*	*
!	!	!LO:LB:g=original	!	!	!
=20-	=20-	=20-	=20-	=20-	=20-
2.A/	.	2AA/	2A/	8cc#X\L	8aa\L
.	.	.	.	8cc#\	8ee\
.	.	.	.	8dd\	8ffny\
.	.	.	.	8ee\J	8ggny\J
!	!	!	!LO:TX:t=P:problem:kreska pseudotaktowa	!	!
.	.	8r	2r	4ff\	4aa\
.	.	8A\L	.	.	.
!	!	!	!	!LO:TX:t=P:problem:kreska pseudotaktowa	!
8B\L	6	8B\	.	4ee\	4gg\
!LO:TX:t=P:problem:kreska pseudotaktowa	!	!	!	!	!
8c\J	6	8c\J	.	.	.
=21-	=21-	=21-	=21-	=21-	=21-
4d\	.	4d\	8r	4dd\	4ff\
.	.	.	8d\L	.	.
4A/	.	4A/	8e\	4ccny\	4ee\
.	.	.	8f\J	.	.
*	*	*	*custos:g	*	*
!LO:TX:t=P:problem:mixed beam	!	!	!LO:LB:g=original	!	!
8B\L	6	8r	4g\	4b/	4dd\
8BB/	.	8BB/L	.	.	.
8C/	6	8C/	4r	4a/	4cc\
8D/J	.	8D/J	.	.	.
=22-	=22-	=22-	=22-	=22-	=22-
1E	3:4:#	1E	8r	4g#X/	4b/
.	.	.	8B/L	.	.
.	.	.	8c/	2a/	4a/
.	.	.	8d/J	.	.
!	!	!	!	!	!LO:TX:t=P:problem:kreska pseudotaktowa
.	.	.	4.e\	.	2b/
!	!	!	!	!LO:TX:t=P:problem:kreska pseudotaktowa	!
.	.	.	.	4g#X/	.
.	.	.	8d\	.	.
=23-	=23-	=23-	=23-	=23-	=23-
!	!	!	!	!	!LO:TX:t=P:problem:mixed beam
2.A/	#	2AA/	2c#X/	8a/L	8a/L
!	!	!	!	!LO:TX:t=P:problem:# below	!
.	.	.	.	8cc#X/	8ee\
.	.	.	.	8dd/	8ff\
.	.	.	.	8ee/J	8gg\J
!	!	!	!LO:TX:t=P:problem:kreska pseudotaktowa	!	!
.	.	8r	2r	4ff\	4aa\
.	.	8A\L	.	.	.
8B\L	.	8B\	.	4ee\	4gg\
8c\J	.	8c\J	.	.	.
=24-	=24-	=24-	=24-	=24-	=24-
4d\	.	4d\	8r	4dd\	4ff\
.	.	.	8d\L	.	.
4A/	.	4A\	8e\	4ccny\	4ee\
.	.	.	8f\J	.	.
!LO:TX:t=P:problem:mixed beam	!	!	!	!	!
8B\L	6	8r	4g\	4b/	4dd\
8BB/	.	8BB/L	.	.	.
!	!	!	!LO:TX:t=P:problem:kreska pseudotaktowa	!	!
8C/	6	8C/	4r	4a/	4cc\
!LO:TX:t=P:problem:kreska pseudotaktowa	!	!	!	!	!
8D/J	.	8D/J	.	.	.
=25-	=25-	=25-	=25-	=25-	=25-
1E	3:4:#	1E	8r	4g#X/	4b/
.	.	.	8B/L	.	.
.	.	.	8cny/	2a/	4a/
.	.	.	8d/J	.	.
.	.	.	4.e\	.	2b/
.	.	.	.	4g#X/	.
.	.	.	8d\	.	.
=26-	=26-	=26-	=26-	=26-	=26-
!	!	!	!	!	!LO:TX:t=P:problem:kreska pseudotaktowa
1AA	#	1AA	1c#X	1a	1a
*custos:A	*	*custos:A	*	*	*custos:ee
!LO:LB:g=original	!	!LO:LB:g=original	!	!	!LO:LB:g=original
=27-	=27-	=27-	=27-	=27-	=27-
*M3/2	*	*M3/2	*M3/2	*M3/2	*M3/2
*met(3)	*	*met(3)	*met(3)	*met(3)	*met(3)
2A/	#	2A/	2c#X/	1.r	2ee\
2A/	.	2A/	2c#/	.	2ee\
*	*	*2\right	*	*	*
2B-X\	.	2B-X\	2d\	.	2dd\
*	*	*	*custos:e	*	*
!	!	!	!LO:LB:g=original	!	!
=28-	=28-	=28-	=28-	=28-	=28-
2A/	#	2A/	2e\	2ee\	1cc#X
2A/	.	2A/	2c#X/	2ee\	.
!LO:TX:t=P:problem:kreska pseudotaktowa	!	!	!	!	!
2D/	.	2D/	2f\	2dd\	2r
*	*	*	*	*custos:cc#	*
!	!	!	!	!LO:LB:g=original	!
=29-	=29-	=29-	=29-	=29-	=29-
2A/	#	2A/	2e\	1cc#X	4cc#Xi\
.	.	.	.	.	4dd\
2A/	.	2A/	2c#X/	.	2ee\
2B-X\	.	2B-X\	2d\	2r	2dd\
=30-	=30-	=30-	=30-	=30-	=30-
2A/	#	2A/	2e\	4cc#X\	1cc#X
.	.	.	.	4dd\	.
2A/	.	2A/	2c#X/	2ee\	.
!LO:TX:t=P:problem:kreska pseudotaktowa	!	!	!	!	!
2D/	.	2D/	2f\	2dd\	2r
=31-	=31-	=31-	=31-	=31-	=31-
1A	#	1A	1e	2cc#X\	4a/
.	.	.	.	.	4b/
.	.	.	.	4a/	4ccny\
.	.	.	.	4b\	4dd\
!	!	!	!LO:TX:t=P:problem:kreska pseudotaktowa	!LO:N:acc=-	!
2A/	-	2A/	2e\	4ccni\	4ee\
.	.	.	.	4dd\	4ff\
=32-	=32-	=32-	=32-	=32-	=32-
2.E/	.	2.E/	4r	1ee	2.gg\
.	.	.	4d\	.	.
.	.	.	4e\	.	.
4D/	.	4D/	4f\	.	4ff\
!LO:TX:t=P:problem:kreska pseudotaktowa	!	!	!	!	!
2C/	.	2C/	2g\	2r	2ee\
=33-	=33-	=33-	=33-	=33-	=33-
1G	.	1G	1g	1b	1dd
2A/	.	2A/	2e\	2a/	2cc\
*	*	*custos:E	*	*	*
!	!	!LO:LB:g=original	!	!	!
=34-	=34-	=34-	=34-	=34-	=34-
1E	#	1E	1e	2.g#X/	2.b/
.	.	.	.	4a/	4a/
!LO:TX:t=P:problem:kreska pseudotaktowa	!	!	!	!	!LO:TX:t=P:problem:# below
2E/	.	2E/	2e\	2b/	2g#X/
=35-	=35-	=35-	=35-	=35-	=35-
1A	#	1AA	1e	2cc#X\	4a/
.	.	.	.	.	4b/
.	.	.	.	4a/	4cc\
.	.	.	.	4b/	4dd\
!	!	!	!	!LO:N:acc=-	!
2A/	-	2A/	2e\	4ccni\	4ee\
.	.	.	.	4dd\	4ff\
*	*	*	*	*	*custos:gg
!	!	!	!	!	!LO:LB:g=original
=36-	=36-	=36-	=36-	=36-	=36-
2.E/	.	2.E/	4e\	1ee	2.gg\
.	.	.	4d\	.	.
.	.	.	4e\	.	.
4D/	.	4D/	4f\	.	4ff\
!LO:TX:t=P:problem:kreska pseudotaktowa	!	!	!	!	!
2C/	.	2C/	2g\	2r	2ee\
*custos:G	*	*	*custos:g	*	*
!LO:LB:g=original	!	!	!LO:LB:g=original	!	!
=37-	=37-	=37-	=37-	=37-	=37-
1G	.	1G	1g	1b	1dd
2A/	.	2A/	2e\	2a/	2cc\
=38-	=38-	=38-	=38-	=38-	=38-
1E	#	1E	1e	2.g#X/	2b/
.	.	.	.	.	4b/
.	.	.	.	4a/	4a/
!LO:TX:t=P:problem:kreska pseudotaktowa	!	!	!	!	!
2E/	.	2E/	2e\	2b/	2g#X/
=39-	=39-	=39-	=39-	=39-	=39-
1.AA	#	1.AA	1e	1cc#X	1a
.	.	.	2r	2r	2r
=40-	=40-	=40-	=40-	=40-	=40-
!	!	!	!	!LO:TX:t=P:problem: VHV nie wyświetla pauzy	!
2A/	#	2A/	2c#X/	1.r	2ee\
2A/	.	2A/	2c#/	.	2ee\
!LO:TX:t=P:problem:kreska pseudotaktowa	!	!	!	!	!
2B-X\	.	2D/	2d\	.	2dd\
*	*	*	*	*custos:ee	*
!	!	!	!	!LO:LB:g=original	!
=41-	=41-	=41-	=41-	=41-	=41-
2A/	#	2A/	2e\	2ee\	1cc#X
2A/	.	2A/	2c#X/	2ee\	.
2D/	.	2B-X\	2f\	2dd\	2r
=42-	=42-	=42-	=42-	=42-	=42-
2A/	#	2A/	2e\	1cc#X	4cc#Xi\
.	.	.	.	.	4dd\
2A/	.	2A/	2c#X/	.	2ee\
!LO:TX:t=P:problem:kreska pseudotaktowa	!	!	!	!	!
2B-X\	.	2D/	2d\	2r	2dd\
*	*	*custos:A	*	*	*
!	!	!LO:LB:g=original	!	!	!
=43-	=43-	=43-	=43-	=43-	=43-
2A/	#	2A/	2e\	4cc#Xi\	1cc#X
.	.	.	.	4dd\	.
2A/	.	2A/	2c#X/	2dd\	.
2D/	.	2B-X\	2f\	2dd\	2r
=44-	=44-	=44-	=44-	=44-	=44-
1A	#	1A	1e	2cc#X\	4a/
.	.	.	.	.	4b/
.	.	.	.	4a/	4ccny\
.	.	.	.	4b\	4dd\
!	!	!	!	!LO:N:acc=-	!
2A/	-	2A/	2e\	4ccni\	4ee\
.	.	.	.	4dd\	4ff\
*	*	*	*custos:e	*	*
!	!	!	!LO:LB:g=original	!	!
=45-	=45-	=45-	=45-	=45-	=45-
2.E/	.	2.E/	4e\	1ee	2.gg\
.	.	.	4d\	.	.
.	.	.	4e\	.	.
4D/	.	4E/	4f\	.	4ff\
2C/	.	2C/	2g\	2r	2ee\
*custos:G	*	*	*	*	*custos:dd
!LO:LB:g=original	!	!	!	!	!LO:LB:g=original
=46-	=46-	=46-	=46-	=46-	=46-
1G	.	1G	1g	1b	1dd
!LO:TX:t=P:problem:kreska pseudotaktowa	!	!	!LO:TX:a:t=e	!	!
2A/	.	2A/	2e\	2a/	2cc\
=47-	=47-	=47-	=47-	=47-	=47-
1E	#	1E	1e	2.g#X/	2.b/
.	.	.	.	4a/	4a/
2E/	.	2E/	2e\	2b/	2g#X/
=48-	=48-	=48-	=48-	=48-	=48-
1A	#	1AA	1e	2cc#X\	4a/
.	.	.	.	.	4b/
.	.	.	.	4a/	4cc\
.	.	.	.	4b/	4dd\
!	!	!	!	!LO:N:acc=-	!
2A/	-	2A/	2.e\	4ccni\	4ee\
.	.	.	.	4dd\	4ff\
=49-	=49-	=49-	=49-	=49-	=49-
2.E/	.	2.E/	.	1ee	2.gg\
.	.	.	4d\	.	.
.	.	.	4e\	.	.
4D/	.	4D/	4f\	.	4ff\
2C/	.	2C/	2g\	2r	2ee\
=50-	=50-	=50-	=50-	=50-	=50-
1G	.	1G	1g	1b	1dd
!LO:TX:t=P:problem:kreska pseudotaktowa	!	!	!	!	!
2A/	.	2A/	2e\	2a/	2cc\
=51-	=51-	=51-	=51-	=51-	=51-
1E	#	1E	1e	2.g#X/	2.b/
.	.	.	.	4a/	4a/
2E/	.	2E/	2e\	2b/	2g#X/
*	*	*custos:A	*	*	*
!	!	!LO:LB:g=original	!	!	!
=52-	=52-	=52-	=52-	=52-	=52-
*M2/2	*	*M2/2	*M2/2	*M2/2	*M2/2
*met(C|)	*	*met(C|)	*met(C|)	*met(C|)	*met(C|)
!	!	!	!	!LO:TX:t=P:problem:# below	!
0A	#	0A	1e	1cc#X	1a
!	!	!	!	!LO:LB:g=original	!
=53-	=53-	=53-	=53-	=53-	=53-
!LO:TX:t=P:problem:kreska pseudotaktowa	!	!	!	!	!
.	.	.	00r	1r	4r
.	.	.	.	.	4ee\
.	.	.	.	.	4ee\
.	.	.	.	.	4ee\
*clefC1	*	*	*	*	*
=54-	=54-	=54-	=54-	=54-	=54-
2a\	.	00r	.	4r	1ee
.	.	.	.	4a/	.
4a\	.	.	.	4a/	.
!L	!	!	!	!	!
4a\	.	.	.	4a/	.
*custos:a	*	*	*	*	*
!LO:LB:g=original	!	!	!	!	!
=55-	=55-	=55-	=55-	=55-	=55-
2.a\	.	.	.	2a/	8r
.	.	.	.	.	8ee\L
.	.	.	.	.	8ff\
.	.	.	.	.	8gg\J
.	.	.	.	8r	4aa\
.	.	.	.	8a/L	.
8b\L	6	.	.	8b/	4gg\
!	!	!	!	!LO:TX:t=P:problem:kreska pseudotaktowa	!
8cc\J	.	.	.	8ccny/J	.
*	*	*	*	*	*custos:ff#
!	!	!	!	!	!LO:LB:g=original
=56-	=56-	=56-	=56-	=56-	=56-
4dd\	#	.	.	4dd\	4ff#X\
4cc\	.	.	.	4cc\	4ee\
4b\	.	.	.	4b/	2dd\
4a\	.	.	.	4a/	.
=57-	=57-	=57-	=57-	=57-	=57-
2.g/	.	.	0r	2gny/	8r
.	.	.	.	.	8dd\L
.	.	.	.	.	8ee\
.	.	.	.	.	8ffny\J
.	.	.	.	8r	4gg\
.	.	.	.	8g/L	.
8a\L	6	.	.	8a/	4ff\
!	!	!	!	!LO:TX:t=P:problem:kreska pseudotaktowa	!
8b\J	.	.	.	8b/J	.
=58-	=58-	=58-	=58-	=58-	=58-
4cc\	.	0r	.	4cc\	4ee\
4b\	.	.	.	4b/	4dd\
2a\	.	.	.	1a/	4cc\
.	.	.	.	.	8b/L
.	.	.	.	.	8a/J
*clefC3	*	*	*	*	*
=59-	=59-	=59-	=59-	=59-	=59-
2e\	4	.	2e\	.	2b/
4e\	#	.	4e\	2g#X/	2b/
4e\	.	.	4e\	.	.
*clefC4	*	*	*custos:e	*	*
!	!	!	!LO:LB:g=original	!	!
=60-	=60-	=60-	=60-	=60-	=60-
2A/	.	2A/	1e	2a/	2a/
4A/	.	4A/	.	8r	8r
!	!	!	!	!LO:TX:t=P:problem:# below	!
.	.	.	.	8g#X/L	8b\L
4A/	.	4A/	.	8a/	8cc\
!	!	!	!	!LO:TX:t=P:problem:kreska pseudotaktowa	!
.	.	.	.	8b/J	8dd\J
=61-	=61-	=61-	=61-	=61-	=61-
2.A/	.	2A/	8r	4cc\	4ee\
.	.	.	8e\L	.	.
.	.	.	8f\	4b/	4dd\
.	.	.	8g\J	.	.
.	.	8r	4a\	4a/	4cc\
.	.	8A\L	.	.	.
!	!	!	!	!LO:TX:t=P:problem:kreska pseudotaktowa	!
8Bny\L	6	8Bny\	4g\	4r	4b/
8c\J	.	8c\J	.	.	.
=62-	=62-	=62-	=62-	=62-	=62-
4d\	.	4d\	4f\	8r	4a/
.	.	.	.	8a/L	.
4c\	.	4c\	4e\	8b/	4r
.	.	.	.	8cc/J	.
4B\	.	4B\	4d\	4dd\	8r
.	.	.	.	.	8dd\L
!	!	!	!LO:TX:t=P:problem:kreska pseudotaktowa	!	!
4A/	.	4A/	4r	4cc\	8ee\
!	!	!	!	!	!LO:TX:t=P:problem:kreska pseudotaktowa
.	.	.	.	.	8ff#Xi\J
*custos:G	*	*	*	*custos:b	*
!LO:LB:g=original	!	!	!	!LO:LB:g=original	!
=63-	=63-	=63-	=63-	=63-	=63-
2.G/	.	2G/	8r	4.b/	4.gg\
.	.	.	8d\L	.	.
.	.	.	8e\	.	.
.	.	.	8f\J	8a/	8ffny\
.	.	8r	4g\	4gny/	4ee\
.	.	8G/L	.	.	.
!	!	!	!	!LO:TX:t=P:problem:kreska pseudotaktowa	!
8A/L	6	8A/	4f\	4r	4dd\
!LO:TX:t=P:problem:kreska pseudotaktowa	!	!	!	!	!
8B/J	.	8B/J	.	.	.
=64-	=64-	=64-	=64-	=64-	=64-
4c\	.	4c\	4e\	2r	8cc\L
.	.	.	.	.	8ee\
4B\	.	4B\	4d\	.	8ff#Xi\
.	.	.	.	.	8gg#Xi\J
*	*	*	*	*	*custos:aa
!	!	!	!	!	!LO:LB:g=original
4.A/	.	4.A/	4.cny/	8r	1aa\
.	.	.	.	8b\L	.
.	.	.	.	8cc\	.
16G/LL	.	16G/LL	16B/LL	8dd\J	.
16F/JJ	.	16F/JJ	16A/JJ	.	.
*	*	*custos:E	*	*	*
!	!	!LO:LB:g=original	!	!	!
=65-	=65-	=65-	=65-	=65-	=65-
4E/	4	4E/	2B/	2.ee\	.
4D/	6	4D/	.	.	.
!LO:TX:t=P:problem:kreska pseudotaktowa	!	!	!	!	!
2E/	#	2E/	2B/	.	2gg#X\
!	!	!	!	!LO:TX:t=P:problem:kreska pseudotaktowa	!
.	.	.	.	4dd\	.
=66-	=66-	=66-	=66-	=66-	=66-
2.A/	.	2AA/	2A/	8cc#X\L	8aa\L
.	.	.	.	8cc#\	8ee\
.	.	.	.	8dd\	8ffny\
.	.	.	.	8ee\J	8ggny\J
!	!	!	!LO:TX:t=P:problem:kreska pseudotaktowa	!	!
.	.	8r	2r	4ff\	4aa\
.	.	8A\L	.	.	.
8B\L	6	8B\	.	4ee\	4gg\
8c\J	.	8c\J	.	.	.
=67-	=67-	=67-	=67-	=67-	=67-
4d\	.	4d\	8r	4dd\	4ff\
.	.	.	8d\L	.	.
4A/	.	4A/	8e\	4ccny\	4ee\
.	.	.	8f\J	.	.
*	*	*	*custos:g	*	*
!LO:TX:t=P:problem:mixed beam	!	!	!LO:LB:g=original	!	!
8B\L	6	8r	4g\	4b/	4dd\
8BB/	.	8BB/L	.	.	.
!	!	!	!LO:TX:t=P:problem:kreska pseudotaktowa	!	!
8C/	6	8C/	4r	4a/	4cc\
!LO:TX:t=P:problem:kreska pseudotaktowa	!	!	!	!	!
8D/J	.	8D/J	.	.	.
=68-	=68-	=68-	=68-	=68-	=68-
1E	3:4:#	1E	8r	4g#X/	4b/
.	.	.	8B/L	.	.
.	.	.	8c/	2a/	4a/
.	.	.	8d/J	.	.
!	!	!	!	!	!LO:TX:t=P:problem:kreska pseudotaktowa
.	.	.	4.e\	.	2b/
!	!	!	!	!LO:TX:t=P:problem:kreska pseudotaktowa	!
.	.	.	.	4g#X/	.
.	.	.	8d\	.	.
=69-	=69-	=69-	=69-	=69-	=69-
!	!	!	!	!	!LO:TX:t=P:problem:mixed beam
2.A/	#	2AA/	2c#X/	8a/	8gny/L
.	.	.	.	8cc#Xi\L	8ee\
.	.	.	.	8dd\	8ff\
.	.	.	.	8ee\J	8gg\J
*	*	*	*	*custos:ff	*
!	!	!	!	!LO:LB:g=original	!
.	.	8r	2r	4ff\	4aa\
.	.	8A\L	.	.	.
8B\L	.	8B\	.	4ee\	4gg\
!LO:TX:t=P:problem:kreska pseudotaktowa	!	!	!	!	!
8c\J	.	8c\J	.	.	.
=70-	=70-	=70-	=70-	=70-	=70-
4d\	.	4d\	8r	4dd\	4ff\
.	.	.	8d\L	.	.
4A/	.	4A/	8e\	4ccny\	4ee\
.	.	.	8f\J	.	.
!LO:TX:t=P:problem:mixed beam	!	!	!	!	!
8B\L	6	8r	4g\	4b/	4dd\
8BB/	.	8BB/L	.	.	.
!	!	!	!LO:TX:t=P:problem:kreska pseudotaktowa	!	!
8C/	6	8C/	4r	4a/	4cc\
8D/J	.	8D/J	.	.	.
*custos:E	*	*	*	*	*
!LO:LB:g=original	!	!	!	!	!
=71-	=71-	=71-	=71-	=71-	=71-
1E	3:4:#	1E	8r	4g#X/	4b/
.	.	.	8B/L	.	.
.	.	.	8cny/	2a/	4a/
.	.	.	8d/J	.	.
.	.	.	4.e\	.	2b/
.	.	.	.	4g#X/	.
.	.	.	8d\	.	.
*	*	*custos:AA	*	*	*
!	!	!LO:LB:g=original	!	!	!
=72-	=72-	=72-	=72-	=72-	=72-
4AA/	#	4AA/	4c#X/	2a/	2a/
4A/	.	4A/	4r	.	.
!	!	!	!LO:TX:t=P:problem:kreska pseudotaktowa	!	!
4A/	.	4A/	2r	8r	8r
!	!	!	!	!LO:TX:t=P:problem:# below	!
.	.	.	.	8g#X/L	8b\L
4A/	.	4A/	.	8a/	8cc\
!	!	!	!	!LO:TX:t=P:problem:kreska pseudotaktowa	!LO:TX:t=P:problem:kreska pseudotaktowa
.	.	.	.	8b/J	8dd\J
=73-	=73-	=73-	=73-	=73-	=73-
2.A/	.	2A/	8r	4cc\	4ee\
.	.	.	8e\L	.	.
.	.	.	8f\	4b/	4dd\
.	.	.	8g\J	.	.
*	*	*	*custos:a	*	*
!	!	!	!LO:LB:g=original	!	!
.	.	8r	4a\	4a/	4cc\
.	.	8A\L	.	.	.
!	!	!	!	!LO:TX:t=P:problem:kreska pseudotaktowa	!LO:TX:t=P:problem:kreska pseudotaktowa
8B\L	6	8B\	4g\	4r	4b/
!LO:TX:t=P:problem:kreska pseudotaktowa	!	!	!	!	!
8c\J	.	8c\J	.	.	.
*	*	*	*	*	*custos:a
!	!	!	!	!	!LO:LB:g=original
=74-	=74-	=74-	=74-	=74-	=74-
4d\	.	4d\	4f\	8r	4a/
.	.	.	.	8a/L	.
4c\	.	4c\	4e\	8b/	4r
.	.	.	.	8cc/J	.
4B\	.	4B\	4d\	4dd\	8r
.	.	.	.	.	8dd\L
!	!	!	!LO:TX:t=P:problem:kreska pseudotaktowa	!LO:TX:t=P:problem:kreska pseudotaktowa	!
4A/	.	4A/	4r	4cc\	8ee\
!	!	!	!	!	!LO:TX:t=P:problem:kreska pseudotaktowa
.	.	.	.	.	8ff#Xi\J
*	*	*	*	*custos:b	*
!	!	!	!	!LO:LB:g=original	!
=75-	=75-	=75-	=75-	=75-	=75-
2.G/	.	2G/	8r	4b/	4.gg\
.	.	.	8d\L	.	.
.	.	.	8e\	4a/	.
.	.	.	8f\J	.	8ffny\
.	.	8r	4g\	4gny/	4ee\
.	.	8G/L	.	.	.
8A/L	6	8A/	4f\	4r	4dd\
!LO:TX:t=P:problem:kreska pseudotaktowa	!	!	!	!	!
8B/J	.	8B/J	.	.	.
=76-	=76-	=76-	=76-	=76-	=76-
4c\	.	4c\	4e\	2r	8cc\L
.	.	.	.	.	8ee\
4B\	.	4B\	4d\	.	8ff#Xi\
.	.	.	.	.	8gg#Xi\J
4.A/	.	4.A/	4.cny/	8r	1aa\
.	.	.	.	8b\L	.
.	.	.	.	8cc\	.
16G/LL	.	16G/LL	16B/LL	8dd\J	.
16F/JJ	.	16F/JJ	16A/JJ	.	.
=77-	=77-	=77-	=77-	=77-	=77-
4E/	4	4E/	2B/	2.ee\	.
4D/	6	4D/	.	.	.
!LO:TX:t=P:problem:kreska pseudotaktowa	!	!	!	!	!
2E/	#	2E/	2B/	.	2gg#X\
.	.	.	.	4dd\	.
=78-	=78-	=78-	=78-	=78-	=78-
2AA/	#	2AA/	2A/	8cc#X\L	8aa\L
.	.	.	.	8cc#\	8ee\
.	.	.	.	8dd\	8ffny\
.	.	.	.	8ee\J	8ggny\J
*	*	*custos:A	*	*	*
!	!	!LO:LB:g=original	!	!	!
4A/	6	8r	2r	4ff\	4aa\
.	.	8A\L	.	.	.
!	!	!	!	!LO:TX:t=P:problem:kreska pseudotaktowa	!LO:TX:t=P:problem:kreska pseudotaktowa
8B\L	6	8B\	.	4ee\	4gg\
8c\J	.	8c\J	.	.	.
=79-	=79-	=79-	=79-	=79-	=79-
4d\	.	4d\	2r	4dd\	4ff\
4A/	#	4A/	.	4cc#X\	4ee\
[2D/	.	2D/	8r	8dd\L	4dd\
.	.	.	8e\L	8g\	.
.	.	.	8f\	8a\	4r
!	!	!	!LO:TX:t=P:problem:kreska pseudotaktowa	!LO:TX:t=P:problem:kreska pseudotaktowa	!
.	.	.	8g\J	8b\J	.
!LO:LB:g=original	!	!	!	!	!
=80-	=80-	=80-	=80-	=80-	=80-
8D/]	.	8r	8f\L	4a/	8r
8C#X/	.	8C#X/L	8e\J	.	8ee\L
8D/	.	8D/	4d\	4dd\	8ff\
8E/J	.	8E/J	.	.	8gg\J
*	*	*	*custos:c	*	*
!	!	!	!LO:LB:g=original	!	!
4.F/	.	4.F/	8r	8r	4.aa\
.	.	.	8c\L	8a/L	.
.	.	.	8d\	8b/	.
!	!	!	!LO:TX:t=P:problem:kreska pseudotaktowa	!LO:TX:t=P:problem:# below	!
8E/	.	8E/	8e\J	8cc#X/J	8gg\
*	*	*	*	*custos:dd	*custos:ff
!	!	!	!	!LO:LB:g=original	!LO:LB:g=original
=81-	=81-	=81-	=81-	=81-	=81-
4D/	.	4D/	4f\	4dd\	4ff\
4A/	#	4A/	4r	4cc#X\	4ee\
4D/	.	4D/	8r	4ff\	4dd\
.	.	.	8d/L	.	.
!LO:TX:t=P:problem:kreska pseudotaktowa	!	!	!	!	!
!	!	!	!	!	!LO:TX:t=P:problem:kreska pseudotaktowa
4A/	#	4A/	8c#X/	4ee\	4r
!	!	!	!LO:TX:t=P:problem:kreska pseudotaktowa	!	!
.	.	.	8c#/J	.	.
=82-	=82-	=82-	=82-	=82-	=82-
0D	.	0D	8d\L	4dd\	8r
.	.	.	8e\	.	8cc#Xi\L
.	.	.	8f\	4r	8dd\
.	.	.	8g\J	.	8ee\J
.	.	.	4.f\	8r	8ff\L
.	.	.	.	8a/L	8cc#Xi\
.	.	.	.	8b/	8dd\
!	!	!	!	!LO:TX:t=P:problem:# below	!
.	.	.	8e\	8cc#X/J	8ee\J
=83-	=83-	=83-	=83-	=83-	=83-
.	.	.	2d\	4.dd\	4.ff\
!	!	!	!	!LO:TX:t=P:problem:# below	!
.	.	.	.	8cc#X\	8ee\
.	.	.	2a\	8dd\L	8ff\L
.	.	.	.	8cc#X\J	8ee\J
.	.	.	.	2.dd\	4ff\
=84-	=84-	=84-	=84-	=84-	=84-
1D	.	1D	1a	.	1ff
.	.	.	.	4cc#X\	.
.	.	.	.	4b/	.
=85-	=85-	=85-	=85-	=85-	=85-
!LO:MO:mod=0A;	!	!LO:MO:mod=0A;	!LO:MO:mod=0a;	!LO:MO:mod=0cc#;	!LO:MO:mod=0ee;
0Al;;	.	0Al;;	0al;;	0cc#Xl;;	0eel;;
==	==	==	==	==	==
*-	*-	*-	*-	*-	*-
!!!system-decoration: [(s1,s2,s3,s4)]s5
!!!RDF**kern: i = editorial accidental
!!!RDF**kern: l = terminal long
!!!ENC: Anastazja Marusiak
!!!END: 2022-11-06
!!!ENC: Jan Barakat
!!!END: 2022-11-18
!!!YEC: Copyright 2022 Narodowy Instytut Fryderyka Chopina (https://polishscores.org)
!!!YEM: License CC-BY-4.0 (https://creativecommons.org/licenses/by/4.0)
!!!filter-modern: sic -sq | autostem -r | tie -si | shed -e "s/^custos:/Xcustos:/I" | shed -e "s/^(\d+[\/\\]right)/$1yy/I; s/^(\d+[\/\\]left)/$1yy/I" | shed -e "s/-//B" | shed -e "s/TX(.*):t=P:/tx$1:t=P:/LG" | modori -m |
